Simply black circles/scalable/mimes/libreoffice-oasis-formula.svg

<?xml version="1.0" encoding="UTF-8" standalone="no"?>
<!-- Created with Inkscape (http://www.inkscape.org/) -->

<svg
   xmlns:dc="http://purl.org/dc/elements/1.1/"
   xmlns:cc="http://creativecommons.org/ns#"
   xmlns:rdf="http://www.w3.org/1999/02/22-rdf-syntax-ns#"
   xmlns:svg="http://www.w3.org/2000/svg"
   xmlns="http://www.w3.org/2000/svg"
   xmlns:xlink="http://www.w3.org/1999/xlink"
   xmlns:sodipodi="http://sodipodi.sourceforge.net/DTD/sodipodi-0.dtd"
   xmlns:inkscape="http://www.inkscape.org/namespaces/inkscape"
   version="1.1"
   width="48"
   height="48"
   id="svg21744"
   sodipodi:docname="libreoffice-oasis-formula.svg"
   inkscape:version="0.92.3 (2405546, 2018-03-11)">
  <sodipodi:namedview
     pagecolor="#ffffff"
     bordercolor="#666666"
     borderopacity="1"
     objecttolerance="10"
     gridtolerance="10"
     guidetolerance="10"
     inkscape:pageopacity="0"
     inkscape:pageshadow="2"
     inkscape:window-width="1366"
     inkscape:window-height="690"
     id="namedview44"
     showgrid="false"
     inkscape:zoom="4.9166666"
     inkscape:cx="14.714789"
     inkscape:cy="39.598429"
     inkscape:window-x="0"
     inkscape:window-y="28"
     inkscape:window-maximized="1"
     inkscape:current-layer="svg21744"
     inkscape:snap-global="false"
     showguides="true"
     inkscape:guide-bbox="true" />
  <defs
     id="defs21746">
    <linearGradient
       x1="525.4375"
       y1="836.1875"
       x2="516.65625"
       y2="828.5"
       id="linearGradient14113"
       xlink:href="#linearGradient14494-2-7"
       gradientUnits="userSpaceOnUse"
       gradientTransform="translate(-125.5,-1702.64)" />
    <linearGradient
       id="linearGradient14494-2-7">
      <stop
         id="stop14496-9-3"
         style="stop-color:#dc85e9;stop-opacity:1"
         offset="0" />
      <stop
         id="stop14498-9-7"
         style="stop-color:#f2cbf8;stop-opacity:1"
         offset="1" />
    </linearGradient>
    <linearGradient
       x1="520.58502"
       y1="735.05206"
       x2="516.15179"
       y2="720.86298"
       id="linearGradient14115"
       xlink:href="#linearGradient14494-5"
       gradientUnits="userSpaceOnUse" />
    <linearGradient
       id="linearGradient14494-5">
      <stop
         id="stop14496-5"
         style="stop-color:#dc85e9;stop-opacity:1"
         offset="0" />
      <stop
         id="stop14498-1"
         style="stop-color:#f2cbf8;stop-opacity:1"
         offset="1" />
    </linearGradient>
    <linearGradient
       x1="525.4375"
       y1="836.1875"
       x2="516.65625"
       y2="828.5"
       id="linearGradient54948"
       xlink:href="#linearGradient14494-2-7"
       gradientUnits="userSpaceOnUse"
       gradientTransform="translate(-462.50049,-802.00385)" />
    <linearGradient
       x1="520.58502"
       y1="735.05206"
       x2="516.15179"
       y2="720.86298"
       id="linearGradient14109"
       xlink:href="#linearGradient14494-5"
       gradientUnits="userSpaceOnUse"
       gradientTransform="matrix(0.512535,0,0,0.615385,-202.35949,-422.92385)" />
    <linearGradient
       x1="525.4375"
       y1="836.1875"
       x2="516.65625"
       y2="828.5"
       id="linearGradient54952"
       xlink:href="#linearGradient14494-2-7"
       gradientUnits="userSpaceOnUse"
       gradientTransform="translate(-462.50049,-797.50385)" />
    <linearGradient
       x1="209.0625"
       y1="-765.46082"
       x2="209.0625"
       y2="-781.62268"
       id="linearGradient44039"
       xlink:href="#linearGradient15606-1"
       gradientUnits="userSpaceOnUse"
       gradientTransform="matrix(1.5,0,0,1.5,-364.99949,1176.9562)" />
    <linearGradient
       id="linearGradient15606-1">
      <stop
         id="stop15608-0"
         style="stop-color:#ffffff;stop-opacity:0.58823502"
         offset="0" />
      <stop
         id="stop15610-5"
         style="stop-color:#ffffff;stop-opacity:0.86274499"
         offset="1" />
    </linearGradient>
    <linearGradient
       x1="294.3429"
       y1="256.58133"
       x2="294.41818"
       y2="243.13852"
       id="linearGradient44042"
       xlink:href="#linearGradient10286-3"
       gradientUnits="userSpaceOnUse"
       gradientTransform="matrix(2.99213,0,0,3.00466,-830.71149,-727.44385)" />
    <linearGradient
       id="linearGradient10286-3">
      <stop
         id="stop10288-8"
         style="stop-color:#b3b3b3;stop-opacity:1"
         offset="0" />
      <stop
         id="stop10290-7"
         style="stop-color:#e6e6e6;stop-opacity:1"
         offset="1" />
    </linearGradient>
    <linearGradient
       x1="110.96875"
       y1="976.29968"
       x2="110.96875"
       y2="992.375"
       id="linearGradient43236"
       xlink:href="#linearGradient4145-42"
       gradientUnits="userSpaceOnUse" />
    <linearGradient
       id="linearGradient4145-42">
      <stop
         id="stop4953"
         style="stop-color:#e694bb;stop-opacity:1"
         offset="0" />
      <stop
         id="stop4955"
         style="stop-color:#d3819a;stop-opacity:1"
         offset="0.26238" />
      <stop
         id="stop4957"
         style="stop-color:#b25a64;stop-opacity:1"
         offset="0.704952" />
      <stop
         id="stop4959"
         style="stop-color:#98313d;stop-opacity:1"
         offset="1" />
    </linearGradient>
    <linearGradient
       x1="110.96875"
       y1="976.29968"
       x2="110.99982"
       y2="991.87488"
       id="linearGradient14097-7"
       xlink:href="#linearGradient4145-42"
       gradientUnits="userSpaceOnUse"
       gradientTransform="matrix(1,0,0,1.00011,0,-0.10551)" />
    <linearGradient
       x1="110.96875"
       y1="976.29968"
       x2="110.96875"
       y2="992.375"
       id="linearGradient21742"
       xlink:href="#linearGradient4145-42"
       gradientUnits="userSpaceOnUse"
       gradientTransform="matrix(1.00399,0,0,1.00959,-1.1658,-9.36636)" />
    <clipPath
       clipPathUnits="userSpaceOnUse"
       id="clipPath867">
      <g
         inkscape:label="Clip"
         id="use869">
        <path
           d="m 47.000614,3.0210706 v 0.75 40.5000404 0.72723 h 0.75 32.499399 0.75 v -0.72723 -25.50003 -0.3282 l -0.2344,-0.2343 -14.9059,-15.0000104 -0.1875,-0.1875 h -0.3282 -17.593399 z"
           id="path875"
           style="color:#000000;font-style:normal;font-variant:normal;font-weight:normal;font-stretch:normal;font-size:medium;line-height:normal;font-family:'Andale Mono';text-indent:0pt;text-align:start;text-decoration:none;text-decoration-line:none;letter-spacing:normal;word-spacing:normal;text-transform:none;direction:ltr;text-anchor:start;display:inline;overflow:visible;visibility:visible;fill:#000000;fill-opacity:1;fill-rule:nonzero;stroke:none;stroke-width:1;marker:none"
           inkscape:connector-curvature="0" />
      </g>
    </clipPath>
  </defs>
  <metadata
     id="metadata21749">
    <rdf:RDF>
      <cc:Work
         rdf:about="">
        <dc:format>image/svg+xml</dc:format>
        <dc:type
           rdf:resource="http://purl.org/dc/dcmitype/StillImage" />
        <dc:title></dc:title>
      </cc:Work>
    </rdf:RDF>
  </metadata>
  <path
     style="color:#000000;font-style:normal;font-variant:normal;font-weight:normal;font-stretch:normal;font-size:medium;line-height:normal;font-family:'Andale Mono';text-indent:0pt;text-align:start;text-decoration:none;text-decoration-line:none;letter-spacing:normal;word-spacing:normal;text-transform:none;direction:ltr;text-anchor:start;display:inline;overflow:visible;visibility:visible;fill:#1a1a1a;fill-opacity:1;stroke:none;stroke-width:5.99873972;marker:none"
     d="M 32.9375 -0.01171875 C 31.939073 0.30807755 31.603332 1.8281951 32.373047 2.5429688 L 41.408203 11.625 C 42.242926 12.420622 43.90524 11.739587 43.949219 10.583984 L 43.949219 1.5019531 C 43.949129 0.70932971 43.231852 -0.01162885 42.443359 -0.01171875 L 33.408203 -0.01171875 C 33.252508 -0.03570975 33.093105 -0.03570975 32.9375 -0.01171875 z M 6.4375 0.013671875 C 5.062346 0.27607036 3.975341 1.6123101 4 3.0117188 L 4 45 C 4.00015 46.570313 5.429312 47.99985 7 48 L 41 48 C 42.570687 47.99985 43.99985 46.570313 44 45 L 44 18.818359 C 44.018 18.026395 43.707481 17.231289 43.15625 16.662109 L 27.34375 0.85742188 C 26.774429 0.30647497 25.979653 -0.004681035 25.1875 0.013671875 L 7 0.013671875 C 6.813106 -0.004321175 6.624454 -0.004321175 6.4375 0.013671875 z M 7 3.0214844 L 7.75 3.0214844 L 25.34375 3.0214844 L 25.671875 3.0214844 L 25.859375 3.2089844 L 40.765625 18.208984 L 41 18.443359 L 41 18.771484 L 41 44.271484 L 41 44.998047 L 40.25 44.998047 L 7.75 44.998047 L 7 44.998047 L 7 44.271484 L 7 3.7714844 L 7 3.0214844 z M 17.349609 19.191406 C 17.275588 19.191406 17.206395 19.231941 17.142578 19.302734 C 17.026136 19.333475 16.937543 19.382485 16.921875 19.472656 L 14.605469 32.796875 L 11.693359 25.017578 C 11.628265 24.843716 11.045506 25.17303 10.388672 25.757812 L 10.140625 25.980469 C 9.4837908 26.565251 9.007171 27.175747 9.0722656 27.349609 L 13.552734 39.316406 C 13.555734 39.324418 13.565164 39.326138 13.570312 39.332031 C 13.723809 39.604962 14.173444 39.940781 14.742188 40.175781 L 15.019531 40.291016 C 15.752135 40.593721 16.380098 40.607654 16.429688 40.322266 L 19.576172 22.216797 L 37.46875 22.216797 C 37.761062 22.216797 37.996094 21.606103 37.996094 20.847656 L 37.996094 20.560547 C 37.996094 19.8021 37.761062 19.191406 37.46875 19.191406 L 17.349609 19.191406 z M 24.833984 26.191406 C 24.599583 26.250144 24.195196 26.53332 23.792969 26.935547 L 23.589844 27.136719 C 23.053541 27.673022 22.729753 28.214128 22.865234 28.349609 L 26.458984 31.943359 L 22.865234 35.535156 C 22.729753 35.670637 23.053541 36.211744 23.589844 36.748047 L 23.792969 36.951172 C 24.329272 37.487475 24.870378 37.811262 25.005859 37.675781 L 28.597656 34.082031 L 32.191406 37.675781 C 32.326887 37.811262 32.867994 37.487475 33.404297 36.951172 L 33.605469 36.748047 C 34.141772 36.211744 34.465559 35.670637 34.330078 35.535156 L 30.738281 31.943359 L 34.330078 28.349609 C 34.465559 28.214128 34.141772 27.673022 33.605469 27.136719 L 33.404297 26.935547 C 32.867994 26.399244 32.326887 26.075456 32.191406 26.210938 L 28.597656 29.802734 L 25.005859 26.210938 C 24.971989 26.177067 24.912118 26.171827 24.833984 26.191406 z "
     id="path14075" />
</svg>

<svg xmlns="http://www.w3.org/2000/svg" width="48" height="48"><defs><linearGradient id="a"><stop offset="0" stop-color="#dc85e9"/><stop offset="1" stop-color="#f2cbf8"/></linearGradient><linearGradient id="b"><stop offset="0" stop-color="#dc85e9"/><stop offset="1" stop-color="#f2cbf8"/></linearGradient><linearGradient id="c"><stop offset="0" stop-color="#fff" stop-opacity=".588"/><stop offset="1" stop-color="#fff" stop-opacity=".863"/></linearGradient><linearGradient id="d"><stop offset="0" stop-color="#b3b3b3"/><stop offset="1" stop-color="#e6e6e6"/></linearGradient><linearGradient id="e"><stop offset="0" stop-color="#e694bb"/><stop offset=".262" stop-color="#d3819a"/><stop offset=".705" stop-color="#b25a64"/><stop offset="1" stop-color="#98313d"/></linearGradient></defs><path style="line-height:normal;text-indent:0;text-align:start;text-decoration-line:none;text-transform:none;marker:none" d="M32.938-.012c-.999.32-1.335 1.84-.565 2.555l9.035 9.082c.835.796 2.497.115 2.541-1.041V1.502c0-.793-.717-1.514-1.506-1.514h-9.035a1.548 1.548 0 0 0-.47 0zm-26.5.026C5.062.276 3.974 1.612 4 3.012V45c0 1.57 1.43 3 3 3h34c1.57 0 3-1.43 3-3V18.818a3.038 3.038 0 0 0-.844-2.156L27.344.857a3.038 3.038 0 0 0-2.157-.843H7a2.938 2.938 0 0 0-.563 0zM7 3.02h18.672l.187.188 14.907 15 .234.234v26.555H7V3.021zm10.35 16.17c-.074 0-.144.04-.207.112-.117.03-.205.08-.221.17l-2.317 13.324-2.912-7.78c-.065-.173-.647.156-1.304.74l-.248.223c-.657.585-1.134 1.196-1.069 1.37l4.48 11.966c.004.008.013.01.018.016.154.273.603.609 1.172.844l.278.115c.732.303 1.36.317 1.41.031l3.146-18.105H37.47c.292 0 .527-.61.527-1.37v-.286c0-.759-.235-1.37-.527-1.37h-20.12zm7.484 7c-.234.06-.639.342-1.041.745l-.203.2c-.536.537-.86 1.078-.725 1.214l3.594 3.593-3.594 3.592c-.135.136.189.677.725 1.213l.203.203c.536.536 1.077.86 1.213.725l3.592-3.594 3.593 3.594c.136.135.677-.189 1.213-.725l.201-.203c.537-.536.86-1.077.725-1.213l-3.592-3.592 3.592-3.593c.136-.136-.188-.677-.725-1.213l-.2-.201c-.537-.537-1.078-.86-1.214-.725l-3.593 3.592-3.592-3.592c-.034-.034-.094-.04-.172-.02z" color="#000" font-weight="400" font-family="Andale Mono" overflow="visible" fill="#1a1a1a"/></svg>
